X:133
T:Jenny's Gone To Linton. FTB.133
T:High Road To Linton,The. FTB.133
M:4/4
L:1/8
Q:200
B:Fiddler's Tune Book 2, pub.1954,EFDSS.
R:.reel
O:England
Z:Chris Partington <www.cpartington.plus.com>
K:A
E|Accea2ae|fefga2a2|Accea2ae|faecB2A:|
|:d|ceea fddf|ecce dBB2|ceea fddf|eaecB2A:|

